X:166
T:Hearty Boys of Ballymote, The
B:Jerry Holland's Collection of Fiddle Tunes
Z:Nigel Gatherer
M:6/8
L:1/8
K:Em
E/F/|GEE B,EE|F3 DFA|GEE B,EE|FED E2 F|GEE B,EE|
F3 DFA|Bee B/c/dB|AFD E2::c|d2 d dcB|AFD FGA|
Bee ede|fed B2 c|d3 dcB|AFD FGA|Bee B/c/dB|AFD E2:|
<end>
<start>
